assets/Child/Default/Flat/child_flat_default.svg

<svg width="32" height="32" viewBox="0 0 32 32" fill="none" xmlns="http://www.w3.org/2000/svg">
<path d="M25.63 6.19524L25.28 6.00501H26.14C26.77 6.00501 27.22 5.38423 27.02 4.78348C26.51 3.17146 24.99 2 23.21 2H12.38C11.16 2 10.17 2.92115 10.03 4.11264C10.02 4.11264 10.0075 4.11514 9.995 4.11765C9.9825 4.12015 9.97 4.12265 9.96 4.12265H9.52C5.92 4.12265 3 7.04631 3 10.6508V13.5544C3 14.4 3.40527 15.1 4.25 15.1H4.83L3.9 18.0188H5.17623L5 19.515V23.76C5 26.11 6.91 28.02 9.26 28.02H10.3V18.0188H21.72V28.02H22.76C25.11 28.02 27.02 26.11 27.02 23.76V18.0188H28.1L27.18 15.0163H27.71C28.42 15.0163 29 14.4355 29 13.7247V11.8523C29.02 9.48936 27.72 7.31665 25.63 6.19524Z" fill="#F1A11E"/>
<path d="M4.61806 15.1C3.79008 15.6891 3.25 16.6565 3.25 17.75C3.25 19.5449 4.70507 21 6.5 21C8.29493 21 9.75 19.5449 9.75 17.75C9.75 15.9551 8.29493 14.5 6.5 14.5C6.2645 14.5 6.03486 14.525 5.81358 14.5726L5.85 15.9074V15.9675L5.92 18C5.37 18 4.92 17.5695 4.9 17.0188L4.83 15.1H4.61806Z" fill="#FDBB11"/>
<path d="M26.1919 14.5738C25.9689 14.5255 25.7374 14.5 25.5 14.5C23.7051 14.5 22.25 15.9551 22.25 17.75C22.25 19.5449 23.7051 21 25.5 21C27.2949 21 28.75 19.5449 28.75 17.75C28.75 16.6029 28.1558 15.5947 27.2583 15.0163H27.18L27.16 15.5369L27.1 17.0188C27.08 17.5695 26.63 18 26.08 18L26.1919 14.5738Z" fill="#FDBB11"/>
<path d="M5.81451 13.7725L6.02566 20.2262C6.26481 26.0785 10.6591 30.01 16 30.01C21.3409 30.01 25.7352 26.0785 25.9743 20.2262L26.1799 13.9416C26.0298 12.8508 25.1005 12.0125 23.97 12.0125H18.8C16.37 12.0125 14.24 10.7309 13.04 8.81851C12.63 10.6408 11 12.0125 9.04999 12.0125H7.80999C6.78256 12.0125 5.93701 12.7823 5.81451 13.7725Z" fill="#FFC83D"/>
<path d="M16.002 23.1739C14.8936 23.1739 13.8651 22.9029 12.9864 22.4412C12.6869 22.2806 12.3673 22.6218 12.5571 22.9129C13.286 24.0472 14.5641 24.8 16.002 24.8C17.4398 24.8 18.7179 24.0472 19.4468 22.9129C19.6266 22.6319 19.317 22.2906 19.0175 22.4412C18.1388 22.9129 17.1103 23.1739 16.002 23.1739Z" fill="#990839"/>
<path d="M15.9934 22C16.6734 22 17.2634 21.6548 17.6234 21.1269C17.9434 20.6497 17.6034 20 17.0334 20H14.9634C14.3934 20 14.0534 20.6497 14.3734 21.1269C14.7234 21.6548 15.3234 22 15.9934 22Z" fill="#ED9200"/>
<path d="M8.19001 17.87C8.53001 16.53 9.75001 15.53 11.2 15.53C12.71 15.53 13.96 16.6 14.24 18.02C14.3 18.33 14.05 18.62 13.73 18.62H8.79001C8.39001 18.62 8.09001 18.25 8.19001 17.87Z" fill="white"/>
<path d="M23.83 17.87C23.49 16.53 22.27 15.53 20.82 15.53C19.31 15.53 18.06 16.6 17.78 18.02C17.72 18.33 17.97 18.62 18.29 18.62H23.23C23.63 18.62 23.93 18.25 23.83 17.87Z" fill="white"/>
<path d="M9.67999 18.1C9.67999 17.01 10.57 16.12 11.66 16.12C12.75 16.12 13.64 17.01 13.64 18.1C13.64 18.29 13.62 18.46 13.57 18.63H9.74999C9.70999 18.46 9.67999 18.28 9.67999 18.1Z" fill="#7D4533"/>
<path d="M22.34 18.1C22.34 17.01 21.45 16.12 20.36 16.12C19.27 16.12 18.38 17.01 18.38 18.1C18.38 18.29 18.4 18.46 18.45 18.63H22.27C22.31 18.46 22.34 18.28 22.34 18.1Z" fill="#7D4533"/>
<path d="M11.66 16.97C12.28 16.97 12.79 17.47 12.79 18.1C12.79 18.29 12.74 18.47 12.66 18.63H10.66C10.58 18.47 10.53 18.29 10.53 18.1C10.53 17.48 11.03 16.97 11.66 16.97Z" fill="black"/>
<path d="M20.36 16.97C19.74 16.97 19.23 17.47 19.23 18.1C19.23 18.29 19.28 18.47 19.36 18.63H21.36C21.44 18.47 21.49 18.29 21.49 18.1C21.49 17.48 20.99 16.97 20.36 16.97Z" fill="black"/>
<path d="M11.33 17.32C11.33 17.5133 11.1733 17.67 10.98 17.67C10.7867 17.67 10.63 17.5133 10.63 17.32C10.63 17.1267 10.7867 16.97 10.98 16.97C11.1733 16.97 11.33 17.1267 11.33 17.32Z" fill="white"/>
<path d="M20.1 17.32C20.1 17.5133 19.9433 17.67 19.75 17.67C19.5567 17.67 19.4 17.5133 19.4 17.32C19.4 17.1267 19.5567 16.97 19.75 16.97C19.9433 16.97 20.1 17.1267 20.1 17.32Z" fill="white"/>
<path d="M9.88768 14.5611C10.409 14.3755 11.1557 14.2346 12.1431 14.3278C12.418 14.3537 12.6619 14.1519 12.6878 13.877C12.7137 13.602 12.5119 13.3582 12.237 13.3322C11.1043 13.2254 10.2111 13.3845 9.55235 13.619C9.2922 13.7116 9.15637 13.9975 9.24896 14.2577C9.34156 14.5178 9.62752 14.6537 9.88768 14.5611Z" fill="#D37034"/>
<path d="M22.4677 13.619C21.809 13.3845 20.9157 13.2254 19.7831 13.3322C19.5081 13.3582 19.3063 13.602 19.3322 13.877C19.3582 14.1519 19.6021 14.3537 19.877 14.3278C20.8643 14.2346 21.6111 14.3755 22.1324 14.5611C22.3925 14.6537 22.6785 14.5178 22.7711 14.2577C22.8637 13.9975 22.7278 13.7116 22.4677 13.619Z" fill="#D37034"/>
</svg>

<svg xmlns="http://www.w3.org/2000/svg" width="32" height="32" fill="none"><path fill="#F1A11E" d="m25.63 6.195-.35-.19h.86a.93.93 0 0 0 .88-1.222A4.003 4.003 0 0 0 23.21 2H12.38c-1.22 0-2.21.921-2.35 2.113a.195.195 0 0 0-.035.005c-.012.002-.025.005-.035.005h-.44C5.92 4.123 3 7.046 3 10.65v2.903c0 .846.405 1.546 1.25 1.546h.58l-.93 2.919h1.276L5 19.515v4.245c0 2.35 1.91 4.26 4.26 4.26h1.04V18.019h11.42V28.02h1.04c2.35 0 4.26-1.91 4.26-4.26v-5.741h1.08l-.92-3.003h.53c.71 0 1.29-.58 1.29-1.291v-1.873a6.363 6.363 0 0 0-3.37-5.657Z"/><path fill="#FDBB11" d="M4.618 15.1a3.25 3.25 0 1 0 1.196-.527l.036 1.334v.06L5.92 18c-.55 0-1-.43-1.02-.981L4.83 15.1h-.212ZM26.192 14.574a3.25 3.25 0 1 0 1.066.442h-.078l-.02.52-.06 1.483c-.02.55-.47.981-1.02.981l.112-3.426Z"/><path fill="#FFC83D" d="m5.815 13.773.21 6.453c.24 5.852 4.634 9.784 9.975 9.784 5.34 0 9.735-3.932 9.974-9.784l.206-6.284a2.23 2.23 0 0 0-2.21-1.93H18.8a6.797 6.797 0 0 1-5.76-3.193 4.098 4.098 0 0 1-3.99 3.193H7.81a2.01 2.01 0 0 0-1.995 1.76Z"/><path fill="#990839" d="M16.002 23.174a6.473 6.473 0 0 1-3.016-.733c-.3-.16-.619.18-.429.472a4.1 4.1 0 0 0 3.445 1.887 4.1 4.1 0 0 0 3.445-1.887c.18-.281-.13-.622-.43-.472a6.354 6.354 0 0 1-3.015.733Z"/><path fill="#ED9200" d="M15.993 22c.68 0 1.27-.345 1.63-.873.32-.477-.02-1.127-.59-1.127h-2.07c-.57 0-.91.65-.59 1.127.35.528.95.873 1.62.873Z"/><path fill="#fff" d="M8.19 17.87a3.112 3.112 0 0 1 3.01-2.34c1.51 0 2.76 1.07 3.04 2.49.06.31-.19.6-.51.6H8.79c-.4 0-.7-.37-.6-.75ZM23.83 17.87a3.112 3.112 0 0 0-3.01-2.34c-1.51 0-2.76 1.07-3.04 2.49-.06.31.19.6.51.6h4.94c.4 0 .7-.37.6-.75Z"/><path fill="#7D4533" d="M9.68 18.1c0-1.09.89-1.98 1.98-1.98a1.985 1.985 0 0 1 1.91 2.51H9.75c-.04-.17-.07-.35-.07-.53ZM22.34 18.1c0-1.09-.89-1.98-1.98-1.98a1.985 1.985 0 0 0-1.91 2.51h3.82c.04-.17.07-.35.07-.53Z"/><path fill="#000" d="M11.66 16.97a1.129 1.129 0 0 1 1 1.66h-2a1.129 1.129 0 0 1 1-1.66ZM20.36 16.97a1.129 1.129 0 0 0-1 1.66h2a1.129 1.129 0 0 0-1-1.66Z"/><path fill="#fff" d="M11.33 17.32a.35.35 0 1 1-.7 0 .35.35 0 0 1 .7 0ZM20.1 17.32a.35.35 0 1 1-.7 0 .35.35 0 0 1 .7 0Z"/><path fill="#D37034" d="M9.888 14.561c.521-.185 1.268-.326 2.255-.233a.5.5 0 1 0 .094-.996c-1.133-.107-2.026.052-2.685.287a.5.5 0 1 0 .336.942ZM22.468 13.619c-.659-.235-1.552-.394-2.685-.287a.5.5 0 1 0 .094.996c.987-.093 1.734.048 2.255.233a.5.5 0 0 0 .336-.942Z"/></svg>
